X:168
T:Lord Anson for ever. JJo8.168
B:J.Johnson Choice Collection Vol 8 1758
Z:vmp.Simon Wilson 2013 www.village-music-project.org.uk
M:C|
L:1/4
Q:1/2=100
K:G
|:g|"_Brisk"GGGA|B/A/B/c/Bc|ddde/f/|g/f/g/a/fd|edgd|edgd|cBAG|A2D:|
|:d|DDDE|F/E/F/G/FG|Aedc|Tc2B[gA]|GBAg|GBAe|dcBA|G2G,:|
